common/src/main/resources/glyphs/gutter/overridenMethod.svg

<svg xmlns="http://www.w3.org/2000/svg" width="12" height="12" fill="#7986CB" viewBox="0 0 24 24"><path d="M16 4 9 8.04v7.92L16 20l7-4.04V8.04m-7-1.73 3.8 2.19-3.8 2.19-3.79-2.19M0 7v2h7V7m4 3.11 4 2.31v4.69l-4-2.3m10-4.7v4.7l-4 2.3v-4.69M2 11v2h5v-2m-3 4v2h3v-2"/><path d="M23.2 15.6a.79.79 0 0 1-.424.704l-6.32 3.552A.76.76 0 0 1 16 20a.76.76 0 0 1-.456-.144l-6.32-3.552A.79.79 0 0 1 8.8 15.6V8.4c0-.304.168-.568.424-.704l6.32-3.552A.76.76 0 0 1 16 4c.168 0 .328.048.456.144l6.32 3.552c.256.136.424.4.424.704zM16 5.72 11.232 8.4 16 11.08l4.768-2.68z"/><path fill="#64B5F6" d="M16.5 0h3v6.75l2.625-2.625L23.94 5.94 18 11.88l-5.94-5.94 1.815-1.815L16.5 6.75z"/></svg>

<!--
  - The MIT License (MIT)
  -
  - Copyright (c) 2015-2022 Elior "Mallowigi" Boukhobza
  -
  - Permission is hereby granted, free of charge, to any person obtaining a copy
  - of this software and associated documentation files (the "Software"), to deal
  - in the Software without restriction, including without limitation the rights
  - to use, copy, modify, merge, publish, distribute, sublicense, and/or sell
  - copies of the Software, and to permit persons to whom the Software is
  - furnished to do so, subject to the following conditions:
  -
  - The above copyright notice and this permission notice shall be included in all
  - copies or substantial portions of the Software.
  -
  - THE SOFTWARE IS PROVIDED "AS IS", WITHOUT WARRANTY OF ANY KIND, EXPRESS OR
  - IMPLIED, INCLUDING BUT NOT LIMITED TO THE WARRANTIES OF MERCHANTABILITY,
  - FITNESS FOR A PARTICULAR PURPOSE AND NONINFRINGEMENT. IN NO EVENT SHALL THE
  - AUTHORS OR COPYRIGHT HOLDERS BE LIABLE FOR ANY CLAIM, DAMAGES OR OTHER
  - LIABILITY, WHETHER IN AN ACTION OF CONTRACT, TORT OR OTHERWISE, ARISING FROM,
  - OUT OF OR IN CONNECTION WITH THE SOFTWARE OR THE USE OR OTHER DEALINGS IN THE
  - SOFTWARE.
  -
  -
  -->


<svg xmlns="http://www.w3.org/2000/svg" version="1.1" width="12px" height="12px" viewBox="0 0 24 24" fill="#7986CB">
  <path
    d="M16,4L9,8.04V15.96L16,20L23,15.96V8.04M16,6.31L19.8,8.5L16,10.69L12.21,8.5M0,7V9H7V7M11,10.11L15,12.42V17.11L11,14.81M21,10.11V14.81L17,17.11V12.42M2,11V13H7V11M4,15V17H7V15" />
  <path
    d="M21,16.5C21,16.88 20.79,17.21 20.47,17.38L12.57,21.82C12.41,21.94 12.21,22 12,22C11.79,22 11.59,21.94 11.43,21.82L3.53,17.38C3.21,17.21 3,16.88 3,16.5V7.5C3,7.12 3.21,6.79 3.53,6.62L11.43,2.18C11.59,2.06 11.79,2 12,2C12.21,2 12.41,2.06 12.57,2.18L20.47,6.62C20.79,6.79 21,7.12 21,7.5V16.5M12,4.15L6.04,7.5L12,10.85L17.96,7.5L12,4.15Z"
    transform="scale(0.8) translate(8 3)" />
  <path fill="#64B5F6" transform="scale(0.75) translate(12 -4)"
        d="M10,4H14V13L17.5,9.5L19.92,11.92L12,19.84L4.08,11.92L6.5,9.5L10,13V4Z" />
</svg>
